icons/editorconfig.svg

<svg width="16" height="16" viewBox="0 0 16 16" fill="none" xmlns="http://www.w3.org/2000/svg">
<path d="M14.35 7.37999C14.053 7.75842 13.6814 8.07177 13.2582 8.30056C12.835 8.52935 12.3693 8.66871 11.89 8.70999C11.97 8.18279 11.9394 7.64469 11.8 7.12999C11.8038 7.09676 11.8038 7.06321 11.8 7.02999C11.73 6.79999 11.65 6.58999 11.56 6.36999C12.91 4.79999 14.8 5.64999 14.35 7.37999Z" fill="#909090" fill-opacity="0.9"/>
<path d="M8.33 3.64999C7.54766 3.59508 6.76154 3.66256 6 3.84999C6 1.88999 9.83 0.749994 8.33 3.64999Z" fill="#909090" fill-opacity="0.9"/>
<path d="M5.61999 7.35C5.61999 8 2.61999 7.27 2.82999 6.52C2.99999 6 5.49999 6.5 5.61999 7.35Z" fill="#909090" fill-opacity="0.9"/>
<path d="M11.16 7.77C11.08 4.53 6.61 3 4.7 5.67C5.43 5.95 6.23 6.43 6.36 7.26C6.48 8.56 4.41 8.5 3.52 8.11C-0.19 16.64 11.22 12.65 11.16 7.77ZM10.35 9C10.35 9.08 10.28 9.18 10.23 9.26C10.188 9.34067 10.1301 9.41207 10.06 9.47C9.9212 9.59805 9.75792 9.6967 9.58 9.76C9.16556 9.88814 8.72594 9.91218 8.3 9.83C7.86023 9.75475 7.43916 9.59515 7.06 9.36C6.73685 9.17889 6.49399 8.88246 6.38 8.53C6.34993 8.4085 6.34993 8.2815 6.38 8.16C6.42445 8.0218 6.48135 7.88792 6.55 7.76C6.6287 7.61664 6.74664 7.4987 6.89 7.42C7.07646 7.30692 7.2921 7.25127 7.51 7.26C7.73 7.26 7.96 7.32 8.18 7.33C8.42144 7.35391 8.65953 7.40421 8.89 7.48C9.43542 7.57464 9.93639 7.84089 10.32 8.24C10.4028 8.34811 10.4501 8.47918 10.4555 8.61524C10.4609 8.75131 10.424 8.8857 10.35 9Z" fill="#909090" fill-opacity="0.9"/>
<path d="M9.64001 8.69999C9.99001 9.53999 6.46001 8.98999 7.23001 8.16999C7.25001 7.87999 9.38001 8.21999 9.64001 8.69999Z" fill="#909090" fill-opacity="0.9"/>
</svg>

<svg xmlns="http://www.w3.org/2000/svg" width="16" height="16" fill="none" viewBox="0 0 16 16"><path fill="#909090" fill-opacity=".9" d="M14.35 7.38a3.5 3.5 0 0 1-2.46 1.33 3.8 3.8 0 0 0-.09-1.58.4.4 0 0 0 0-.1c-.07-.23-.15-.44-.24-.66 1.35-1.57 3.24-.72 2.79 1.01M8.33 3.65a7.5 7.5 0 0 0-2.33.2c0-1.96 3.83-3.1 2.33-.2m-2.71 3.7c0 .65-3-.08-2.79-.83C3 6 5.5 6.5 5.62 7.35"/><path fill="#909090" fill-opacity=".9" d="M11.16 7.77C11.08 4.53 6.61 3 4.7 5.67c.73.28 1.53.76 1.66 1.59.12 1.3-1.95 1.24-2.84.85-3.71 8.53 7.7 4.54 7.64-.34M10.35 9c0 .08-.07.18-.12.26a.7.7 0 0 1-.17.21 1.4 1.4 0 0 1-.48.29 2.64 2.64 0 0 1-1.28.07 3.5 3.5 0 0 1-1.24-.47 1.47 1.47 0 0 1-.68-.83.8.8 0 0 1 0-.37 2.4 2.4 0 0 1 .17-.4.86.86 0 0 1 .34-.34 1.1 1.1 0 0 1 .62-.16c.22 0 .45.06.67.07q.363.036.71.15a2.6 2.6 0 0 1 1.43.76.66.66 0 0 1 .03.76"/><path fill="#909090" fill-opacity=".9" d="M9.64 8.7c.35.84-3.18.29-2.41-.53.02-.29 2.15.05 2.41.53"/></svg>
